X:1
T: Clutha Hornpipe
C:Carl Volti
R:Reel
Q: 232
K:G
M:4/4
L:1/8
|:GB|d2 e^c dB GB|d^c ec d2 ((3def)|gf ed cB AG|FG AB A2 AB|
|1c2 dB cA FA|cB dB c2 ((3cdc)|ag fe de dc|c2 B2 B2 GB:|
|2c2 dB cA FA|cB dB c2 ((3cdc)|ag fe de dc|B2 G2 G2 gf|
|:((3ege) c2 ((3ege) c2|((3BdB) G2 GB AG|FG AB cd ef|ag ((3gfe) d2 gf|
((3ege) c2 ((3ege) c2|((3BdB) G2 GB AG|FG AB cd ef|1g2 g2 g2 gf:|2g2 g2 g2||
